X:9002
T:In Dulci Jubilo
T:Good Christian Men Rejoice
R:Jig
C:Heinrich Seuse circa 1328
O:Germany
Z:Paul Hardy's Xmas Tunebook 2019 (see www.paulhardy.net). Creative Commons cc by-nc-sa licenced.
M:6/8
L:1/8
Q:3/8=100
K:G
G|"G"G2G B2c|"D"d2e d2d|"G"G2G B2c|"D"d2e d2d|"D"d2e d2c|"Em"B3 G2G|"D"A2A B2A|"Em"G2A B2B||
"D"d2e d2c|"Em"B3 G2G|"Am"A2A B2A|"Em"G2A B2B|"C"E2E "D"FEF|"G"G3 d3|"D7"B2B AGA|"G"G3- G2|]
W:In dulci jubilo; Now sing we all with hearts aglow!
W:Our delight and pleasure; Lies in praesepio,
W:Like sunshine is our treasure; Matris in gremio.
W:Alpha es et O! Alpha es et O!
W:
W:Good Christian men rejoice; With heart and soul and voice!
W:Give ye heed to what we say; News! News! Jesus Christ is born today!
W:Ox and ass before Him bow; And He is in the manger now
W:Christ is born today! Christ is born today!

